source/img/year/number-icon_year-0.svg

<svg width="186" height="212" viewBox="0 0 186 212"  xmlns="http://www.w3.org/2000/svg">

<path d="M158.798 179.063C142.125 198.733 120.114 208.568 92.763 208.568C65.4123 208.568 43.4007 198.827 26.728 179.344C10.2427 159.674 2 135.321 2 106.284C2 77.622 10.43 53.456 27.29 33.786C44.15 13.9287 66.1617 4 93.325 4C120.676 4 142.594 13.835 159.079 33.505C175.752 53.175 184.088 77.4347 184.088 106.284C184.088 134.946 175.658 159.206 158.798 179.063ZM66.911 145.343C73.655 155.272 82.4597 160.236 93.325 160.236C104.19 160.236 112.901 155.272 119.458 145.343C126.015 135.227 129.293 122.207 129.293 106.284C129.293 90.548 125.827 77.622 118.896 67.506C112.152 57.39 103.441 52.332 92.763 52.332C81.8977 52.332 73.1867 57.2963 66.63 67.225C60.0733 77.1537 56.795 90.1733 56.795 106.284C56.795 122.207 60.167 135.227 66.911 145.343Z"/>
</svg>

<svg width="186" height="212" xmlns="http://www.w3.org/2000/svg" viewBox="0 0 186 212" ><path d="M158.798 179.063c-16.673 19.67-38.684 29.505-66.035 29.505-27.35 0-49.362-9.741-66.035-29.224C10.243 159.674 2 135.321 2 106.284c0-28.662 8.43-52.828 25.29-72.498C44.15 13.929 66.162 4 93.325 4c27.351 0 49.269 9.835 65.754 29.505 16.673 19.67 25.009 43.93 25.009 72.779 0 28.662-8.43 52.922-25.29 72.779zm-91.887-33.72c6.744 9.929 15.549 14.893 26.414 14.893 10.865 0 19.576-4.964 26.133-14.893 6.557-10.116 9.835-23.136 9.835-39.059 0-15.736-3.466-28.662-10.397-38.778-6.744-10.116-15.455-15.174-26.133-15.174-10.865 0-19.576 4.964-26.133 14.893-6.557 9.929-9.835 22.948-9.835 39.059 0 15.923 3.372 28.943 10.116 39.059z"/></svg>
